public/images/running-line/1.svg

<svg width="649" height="59" viewBox="0 0 649 59" fill="none" xmlns="http://www.w3.org/2000/svg">
<path d="M23.8643 30.07H0.414258V22.86H23.8643V9.21H0.414258V2H31.0743V51H0.414258V43.79H23.8643V30.07ZM44.587 51H37.447V2H69.717V51H62.507V30.14H44.587V51ZM44.587 9.21V22.93H62.507V9.21H44.587ZM148.816 1.37V9.56L111.856 26.43L148.816 43.23V51.49L110.456 34.13V51H103.246V2H110.456V18.8L148.816 1.37ZM201.152 36.79C197.162 46.1 187.922 52.61 177.142 52.61C162.652 52.61 150.962 40.92 150.962 26.43C150.962 11.94 162.652 0.249998 177.142 0.249998C191.632 0.249998 203.322 11.94 203.322 26.43C203.322 27.27 203.252 28.11 203.182 28.88H158.522C159.012 33.01 160.902 36.79 163.842 39.73C167.412 43.3 172.102 45.26 177.142 45.26C182.182 45.26 186.872 43.3 190.442 39.73C191.492 38.61 192.472 37.42 193.242 36.16L201.152 36.79ZM177.142 7.6C172.102 7.6 167.412 9.56 163.842 13.13C161.462 15.51 159.782 18.52 158.942 21.67H195.342C194.502 18.52 192.822 15.51 190.442 13.13C186.872 9.56 182.182 7.6 177.142 7.6ZM224.082 51L219.182 8.44H214.982V51H207.562V2H225.972L230.522 44.28H234.582L239.132 2H257.542V51H249.842L249.982 8.58H245.852L240.812 51H224.082ZM296.483 9.28V21.04H324.973V51H289.273V2H324.973V9.28H296.483ZM296.483 28.25V43.72H317.693V28.25H296.483ZM331.224 33.64V2H338.434V26.5H356.984V2H364.194V33.64H351.314V51H344.104V33.64H331.224ZM370.541 43.65V2H403.091V43.65H412.261V50.86H361.371V43.65H370.541ZM377.751 9.14V43.65H395.951V9.14H377.751ZM411.547 33.64V2H418.757V26.5H437.307V2H444.517V33.64H431.637V51H424.427V33.64H411.547ZM451.537 2H458.747V43.79H469.317V2H476.527V43.79H487.167V2H494.377V43.79H503.687V58.98H496.477V51H451.537V2ZM552.178 36.79C548.188 46.1 538.948 52.61 528.168 52.61C513.678 52.61 501.988 40.92 501.988 26.43C501.988 11.94 513.678 0.249998 528.168 0.249998C542.658 0.249998 554.348 11.94 554.348 26.43C554.348 27.27 554.278 28.11 554.208 28.88H509.548C510.038 33.01 511.928 36.79 514.868 39.73C518.438 43.3 523.128 45.26 528.168 45.26C533.208 45.26 537.898 43.3 541.468 39.73C542.518 38.61 543.498 37.42 544.268 36.16L552.178 36.79ZM528.168 7.6C523.128 7.6 518.438 9.56 514.868 13.13C512.488 15.51 510.808 18.52 509.968 21.67H546.368C545.528 18.52 543.848 15.51 541.468 13.13C537.898 9.56 533.208 7.6 528.168 7.6ZM608.848 36.79C604.858 46.1 595.618 52.61 584.838 52.61C570.348 52.61 558.658 40.92 558.658 26.43C558.658 11.94 570.348 0.249998 584.838 0.249998C599.328 0.249998 611.018 11.94 611.018 26.43C611.018 27.27 610.948 28.11 610.878 28.88H566.218C566.708 33.01 568.598 36.79 571.538 39.73C575.108 43.3 579.798 45.26 584.838 45.26C589.878 45.26 594.568 43.3 598.138 39.73C599.188 38.61 600.168 37.42 600.938 36.16L608.848 36.79ZM584.838 7.6C579.798 7.6 575.108 9.56 571.538 13.13C569.158 15.51 567.478 18.52 566.638 21.67H603.038C602.198 18.52 600.518 15.51 598.138 13.13C594.568 9.56 589.878 7.6 584.838 7.6ZM648.457 17.96C648.457 22.72 646.567 27.13 643.207 30.49C640.757 33.01 637.607 34.62 634.177 35.32V41.97H627.177V27.76C628.227 28.25 629.487 28.39 630.747 28.39C636.487 28.39 641.177 23.7 641.177 17.96C641.177 12.22 636.487 7.53 630.747 7.53C626.757 7.53 623.327 9.77 621.577 12.99L614.577 10.75C615.417 8.79 616.677 6.97 618.217 5.43C621.577 2.14 625.987 0.249998 630.747 0.249998C635.437 0.249998 639.917 2.14 643.207 5.43C646.567 8.79 648.457 13.27 648.457 17.96ZM634.667 49.46C634.667 47.22 632.987 45.4 630.747 45.4C628.577 45.4 626.757 47.22 626.757 49.46C626.757 51.56 628.577 53.38 630.747 53.38C632.987 53.38 634.667 51.56 634.667 49.46Z" fill="url(#paint0_linear_34_78)"/>
<defs>
<linearGradient id="paint0_linear_34_78" x1="-32.9589" y1="17.224" x2="680.974" y2="49.0389" gradientUnits="userSpaceOnUse">
<stop stop-color="#56C0E5"/>
<stop offset="0.494791" stop-color="#B977E6"/>
<stop offset="1" stop-color="#E55C5E"/>
</linearGradient>
</defs>
</svg>

<svg width="649" height="59" viewBox="0 0 649 59" fill="none" xmlns="http://www.w3.org/2000/svg"><path d="M23.864 30.07H.414v-7.21h23.45V9.21H.414V2h30.66v49H.414v-7.21h23.45V30.07zM44.587 51h-7.14V2h32.27v49h-7.21V30.14h-17.92V51zm0-41.79v13.72h17.92V9.21h-17.92zm104.229-7.84v8.19l-36.96 16.87 36.96 16.8v8.26l-38.36-17.36V51h-7.21V2h7.21v16.8l38.36-17.43zm52.336 35.42c-3.99 9.31-13.23 15.82-24.01 15.82-14.49 0-26.18-11.69-26.18-26.18S162.652.25 177.142.25s26.18 11.69 26.18 26.18c0 .84-.07 1.68-.14 2.45h-44.66c.49 4.13 2.38 7.91 5.32 10.85 3.57 3.57 8.26 5.53 13.3 5.53 5.04 0 9.73-1.96 13.3-5.53 1.05-1.12 2.03-2.31 2.8-3.57l7.91.63zM177.142 7.6c-5.04 0-9.73 1.96-13.3 5.53-2.38 2.38-4.06 5.39-4.9 8.54h36.4c-.84-3.15-2.52-6.16-4.9-8.54-3.57-3.57-8.26-5.53-13.3-5.53zm46.94 43.4l-4.9-42.56h-4.2V51h-7.42V2h18.41l4.55 42.28h4.06L239.132 2h18.41v49h-7.7l.14-42.42h-4.13L240.812 51h-16.73zm72.401-41.72v11.76h28.49V51h-35.7V2h35.7v7.28h-28.49zm0 18.97v15.47h21.21V28.25h-21.21zm34.741 5.39V2h7.21v24.5h18.55V2h7.21v31.64h-12.88V51h-7.21V33.64h-12.88zm39.317 10.01V2h32.55v41.65h9.17v7.21h-50.89v-7.21h9.17zm7.21-34.51v34.51h18.2V9.14h-18.2zm33.796 24.5V2h7.21v24.5h18.55V2h7.21v31.64h-12.88V51h-7.21V33.64h-12.88zM451.537 2h7.21v41.79h10.57V2h7.21v41.79h10.64V2h7.21v41.79h9.31v15.19h-7.21V51h-44.94V2zm100.641 34.79c-3.99 9.31-13.23 15.82-24.01 15.82-14.49 0-26.18-11.69-26.18-26.18S513.678.25 528.168.25s26.18 11.69 26.18 26.18c0 .84-.07 1.68-.14 2.45h-44.66c.49 4.13 2.38 7.91 5.32 10.85 3.57 3.57 8.26 5.53 13.3 5.53 5.04 0 9.73-1.96 13.3-5.53 1.05-1.12 2.03-2.31 2.8-3.57l7.91.63zM528.168 7.6c-5.04 0-9.73 1.96-13.3 5.53-2.38 2.38-4.06 5.39-4.9 8.54h36.4c-.84-3.15-2.52-6.16-4.9-8.54-3.57-3.57-8.26-5.53-13.3-5.53zm80.68 29.19c-3.99 9.31-13.23 15.82-24.01 15.82-14.49 0-26.18-11.69-26.18-26.18S570.348.25 584.838.25s26.18 11.69 26.18 26.18c0 .84-.07 1.68-.14 2.45h-44.66c.49 4.13 2.38 7.91 5.32 10.85 3.57 3.57 8.26 5.53 13.3 5.53 5.04 0 9.73-1.96 13.3-5.53 1.05-1.12 2.03-2.31 2.8-3.57l7.91.63zM584.838 7.6c-5.04 0-9.73 1.96-13.3 5.53-2.38 2.38-4.06 5.39-4.9 8.54h36.4c-.84-3.15-2.52-6.16-4.9-8.54-3.57-3.57-8.26-5.53-13.3-5.53zm63.619 10.36c0 4.76-1.89 9.17-5.25 12.53-2.45 2.52-5.6 4.13-9.03 4.83v6.65h-7V27.76c1.05.49 2.31.63 3.57.63 5.74 0 10.43-4.69 10.43-10.43 0-5.74-4.69-10.43-10.43-10.43-3.99 0-7.42 2.24-9.17 5.46l-7-2.24c.84-1.96 2.1-3.78 3.64-5.32 3.36-3.29 7.77-5.18 12.53-5.18 4.69 0 9.17 1.89 12.46 5.18 3.36 3.36 5.25 7.84 5.25 12.53zm-13.79 31.5c0-2.24-1.68-4.06-3.92-4.06-2.17 0-3.99 1.82-3.99 4.06 0 2.1 1.82 3.92 3.99 3.92 2.24 0 3.92-1.82 3.92-3.92z" fill="url(#paint0_linear_34_78)"/><defs><linearGradient id="paint0_linear_34_78" x1="-32.959" y1="17.224" x2="680.974" y2="49.039" gradientUnits="userSpaceOnUse"><stop stop-color="#56C0E5"/><stop offset=".495" stop-color="#B977E6"/><stop offset="1" stop-color="#E55C5E"/></linearGradient></defs></svg>
